X: 855
T: Gökyüzünde Tüten Olsam
C: Necmi Pişkin
O: Turkey
F: http://compmusic.upf.edu/node/140
N: suzinak-zirgule--turku--semai--gokyuzunde_tuten--necmi_piskin
N: makam= suzinak-zirgule
N: form= turku
N: usul= semai = 3/4
M: 3/4
L: 1/16
K: C _1/4B _7/8e _7/8A ^f
Q: 1/4=168
%%MIDI tuningsystem comma53
g2{a}g2 {a}f4 e4  | g2{a}g2 {a}f4 e4  | \
w:  ARANAĞME  |   | 
g2{a}g2 {a}f4 e4  | d8 z4  | e4 d4 c4  | \
w:   |   |   | 
e4 d4 c4  | e4 d4 c4  | 
w:   |   | 
B8 z4  | c4 B4 A4  | G4 A4 B4  | c4 B4 A4  | G12  | \
w:   |   |   |   |   | 
c4 B4 A4  | G4 A4 B4  | G12  | A2B2 c2d2 e2f2  | 
w:   |   |   |   | 
g2{a}g2 {a}f4 e4  | g2{a}g2 {a}f4 e4  | \
w:  ARANAĞME  |   | 
g2{a}g2 {a}f4 e4  | d8 z4  | e4 d4 c4  | \
w:   |   |   | 
e4 d4 c4  | e4 d4 c4  | 
w:   |   | 
B8 z4  | c4 B4 A4  | G4 A4 B4  | c4 B4 A4  | G12  | \
w:   |   |   |   |   | 
c4 B4 A4  | G4 A4 B4  | G12  | c2d2 e2f2 g4  | 
w:   |   |   |   | 
g4 f4 e4  | f4 e4 {f}d4  | e4 {f}d4 {e}c4  | \
w:  Gök *  yü  |  zün  |  de   | 
B4 c4 .d4  | {f}e4 d4 c4  | B4 A4 B4  | G12  | \
w:   |  *  tü ten   |  ol  |  sam    | 
G2A2 B2c2 .d4  | 
w:  SAZ  | 
c4 d4 d4  | d3e d2e2 c4  | d4 _2/4e4 =f4  | g12  | \
w:  Yer *  yü  |  zün  |  de   |   | 
=f4 _3/4e4 d4  | c4 =f4 e2d2  | d12  | B4 A4 G4  | 
w:  bi ten   |  ol  |  sam    |  SAZ  | 
g4 f4 e4  | f4 e4 {f}d4  | e4 {f}d4 {e}c4  | \
w:  Gök *  yü  |  zün  |  de   | 
B4 c4 .d4  | {f}e4 d4 c4  | B4 A4 B4  | G12  | \
w:   |  *  tü ten   |  ol  |  sam    | 
G2A2 B2c2 .d4  | 
w:  SAZ  | 
c4 d4 d4  | d3e d2e2 c4  | d4 _2/4e4 =f4  | g12  | \
w:  Yer *  yü  |  zün  |  de   |   | 
=f4 _3/4e4 d4  | c4 =f4 e2d2  | d12  | DEFG ABcd e4  | 
w:  bi ten   |  ol  |  sam    |  SAZ  | 
{d}e8 e4  | e4 d4 {e}c4  | d4 {e}c4 {d}B4  | \
w:  *  Al  be  |  nek  |  li   | 
B4 c4 d4  | g4 f4 e4  | f4 {g}e4 {f}d4  | \
w:   |  ke ten   |  ol  | 
e4 {f}d4 {e}c4  | B8 z4  | 
w:  sam    |   | 
G4 A4 B4  | {d}c4 {d}B4 {c}A4  | G12  | \
w:  Yâr  *  boy  |  *  nu  |  na   | 
d2c2 d8  | e4 d4 c4  | B4 A4 B4  | G12  | DEFG ABcd e4  | 
w:   |  sar *  sa   |  be  |  ni    |  SAZ  | 
{d}e8 e4  | e4 d4 {e}c4  | d4 {e}c4 {d}B4  | \
w:  *  Al  be  |  nek  |  li   | 
B4 c4 d4  | g4 f4 e4  | f4 {g}e4 {f}d4  | \
w:   |  ke ten   |  ol  | 
e4 {f}d4 {e}c4  | B8 z4  | 
w:  sam    |   | 
G4 A4 B4  | {d}c4 {d}B4 {c}A4  | G12  | \
w:  Yâr  *  boy  |  *  nu  |  na   | 
d2c2 d8  | e4 d4 c4  | B4 A4 B4  | G12  | G12  | \
w:   |  sar *  sa   |  be  |  ni    |   | 
g2{a}g2 {a}f4 e4  | 
w:  ARANAĞME  | 
g2{a}g2 {a}f4 e4  | g2{a}g2 {a}f4 e4  | \
w:   |   | 
d8 z4  | e4 d4 c4  | e4 d4 c4  | e4 d4 c4  | \
w:   |   |   |   | 
B8 z4  | 
w:   | 
c4 B4 A4  | G4 A4 B4  | c4 B4 A4  | G12  | \
w:   |   |   |   | 
c4 B4 A4  | G4 A4 B4  | G12  | A2B2 c2d2 e2f2  | 
w:   |   |   |   | 
g2{a}g2 {a}f4 e4  | g2{a}g2 {a}f4 e4  | \
w:  ARANAĞME  |   | 
g2{a}g2 {a}f4 e4  | d8 z4  | e4 d4 c4  | \
w:   |   |   | 
e4 d4 c4  | e4 d4 c4  | 
w:   |   | 
B8 z4  | c4 B4 A4  | G4 A4 B4  | c4 B4 A4  | G12  | \
w:   |   |   |   |   | 
c4 B4 A4  | G4 A4 B4  | G12  | c2d2 e2f2 g4  | 
w:   |   |   |   | 
g4 f4 e4  | f4 e4 {f}d4  | e4 {f}d4 {e}c4  | \
w:  Gök *  yü  |  zün  |  de   | 
B4 c4 .d4  | {f}e4 d4 c4  | B4 A4 B4  | G12  | \
w:   |  *  tü ten   |  ol  |  sam    | 
G2A2 B2c2 .d4  | 
w:  SAZ  | 
c4 d4 d4  | d3e d2e2 c4  | d4 _2/4e4 =f4  | g12  | \
w:  Yer *  yü  |  zün  |  de   |   | 
=f4 _3/4e4 d4  | c4 =f4 e2d2  | d12  | B4 A4 G4  | 
w:  bi ten   |  ol  |  sam    |  SAZ  | 
g4 f4 e4  | f4 e4 {f}d4  | e4 {f}d4 {e}c4  | \
w:  Gök *  yü  |  zün  |  de   | 
B4 c4 .d4  | {f}e4 d4 c4  | B4 A4 B4  | G12  | \
w:   |  *  tü ten   |  ol  |  sam    | 
G2A2 B2c2 .d4  | 
w:  SAZ  | 
c4 d4 d4  | d3e d2e2 c4  | d4 _2/4e4 =f4  | g12  | \
w:  Yer *  yü  |  zün  |  de   |   | 
=f4 _3/4e4 d4  | c4 =f4 e2d2  | d12  | DEFG ABcd e4  | 
w:  bi ten   |  ol  |  sam    |  SAZ  | 
{d}e8 e4  | e4 d4 {e}c4  | d4 {e}c4 {d}B4  | \
w:  *  Al  be  |  nek  |  li   | 
B4 c4 d4  | g4 f4 e4  | f4 {g}e4 {f}d4  | \
w:   |  ke ten   |  ol  | 
e4 {f}d4 {e}c4  | B8 z4  | 
w:  sam    |   | 
G4 A4 B4  | {d}c4 {d}B4 {c}A4  | G12  | \
w:  Yâr  *  boy  |  *  nu  |  na   | 
d2c2 d8  | e4 d4 c4  | B4 A4 B4  | G12  | |


